Sweet-Rainbow/icons/cherrytree.svg

<?xml version="1.0" encoding="UTF-8" standalone="no"?>
<!-- Generator: Gravit.io -->

<svg
   xmlns:dc="http://purl.org/dc/elements/1.1/"
   xmlns:cc="http://creativecommons.org/ns#"
   xmlns:rdf="http://www.w3.org/1999/02/22-rdf-syntax-ns#"
   xmlns:svg="http://www.w3.org/2000/svg"
   xmlns="http://www.w3.org/2000/svg"
   xmlns:sodipodi="http://sodipodi.sourceforge.net/DTD/sodipodi-0.dtd"
   xmlns:inkscape="http://www.inkscape.org/namespaces/inkscape"
   style="isolation:isolate"
   viewBox="0 0 36 36"
   width="48"
   height="48"
   version="1.1"
   id="svg16"
   sodipodi:docname="cherrytree.svg"
   inkscape:version="0.92.4 (5da689c313, 2019-01-14)">
  <metadata
     id="metadata22">
    <rdf:RDF>
      <cc:Work
         rdf:about="">
        <dc:format>image/svg+xml</dc:format>
        <dc:type
           rdf:resource="http://purl.org/dc/dcmitype/StillImage" />
        <dc:title></dc:title>
      </cc:Work>
    </rdf:RDF>
  </metadata>
  <defs
     id="defs20" />
  <sodipodi:namedview
     pagecolor="#ffffff"
     bordercolor="#666666"
     borderopacity="1"
     objecttolerance="10"
     gridtolerance="10"
     guidetolerance="10"
     inkscape:pageopacity="0"
     inkscape:pageshadow="2"
     inkscape:window-width="640"
     inkscape:window-height="480"
     id="namedview18"
     showgrid="false"
     inkscape:zoom="29.365243"
     inkscape:cx="25.325443"
     inkscape:cy="32"
     inkscape:current-layer="svg16"
     units="px" />
  <linearGradient
     id="_lgradient_3"
     x1="0"
     y1="0.5"
     x2="1"
     y2="0.5"
     gradientTransform="matrix(28.168,0,0,29.898,9.916,0.586)"
     gradientUnits="userSpaceOnUse">
    <stop
       offset="0%"
       stop-opacity="1"
       style="stop-color:rgb(67,233,123)"
       id="stop2" />
    <stop
       offset="97.82608695652173%"
       stop-opacity="1"
       style="stop-color:rgb(56,249,215)"
       id="stop4" />
  </linearGradient>
  <linearGradient
     id="_lgradient_4"
     x1="0"
     y1="0.5"
     x2="0.90748805"
     y2="0.92007786"
     gradientTransform="matrix(44,0,0,19.277,2,28.137)"
     gradientUnits="userSpaceOnUse">
    <stop
       offset="0%"
       stop-opacity="1"
       style="stop-color:rgb(255,65,108)"
       id="stop9" />
    <stop
       offset="84.34782608695653%"
       stop-opacity="1"
       style="stop-color:rgb(255,75,43)"
       id="stop11" />
  </linearGradient>
  <g
     id="g831"
     transform="matrix(0.76876851,0,0,0.76876851,-0.45044424,-0.45039017)">
    <path
       id="path7"
       d="m 22.895,14.063 c -0.458,0.367 -0.911,0.741 -1.359,1.121 -4.19,3.59 -7.83,7.78 -10.81,12.42 l -0.81,1.26 2.52,1.62 0.81,-1.26 c 2.82,-4.39 6.27,-8.35 10.23,-11.75 3.19,-2.7 6.64,-5.06 10.32,-7.04 -0.33,1.07 -0.62,2.14 -0.86,3.23 -0.47,2.18 -0.72,4.4 -0.72,6.63 -0.01,2.91 0.45,5.81 1.34,8.58 l 0.46,1.43 2.86,-0.92 -0.46,-1.43 c -0.8,-2.47 -1.21,-5.06 -1.2,-7.66 0,-2.01 0.22,-4.02 0.65,-5.98 0.76,-3.44 2,-6.75 2,-6.75 0.938,-1.7 -1.244,-1.946 -4.87,-0.55 0,0 -1.425,0.846 -3.679,2.383 -0.251,-0.011 -0.502,0.083 -0.694,0.271 v 0 c -0.225,0.224 -0.457,0.44 -0.695,0.648 -0.531,0.366 -1.129,0.789 -1.77,1.279 -0.066,0.038 -0.132,0.073 -0.199,0.109 -0.426,0.223 -0.887,0.373 -1.362,0.443 -0.431,0.06 -0.87,0.048 -1.295,-0.041 C 22.8,12.004 22.305,11.831 21.827,11.616 20.595,11.042 19.32,10.542 18.022,10.139 16.848,9.776 15.63,9.579 14.406,9.531 14.71,8.537 15.12,7.559 15.616,6.638 16.121,5.698 16.793,4.865 17.602,4.179 18.524,3.411 19.642,2.91 20.825,2.706 21.488,2.596 22.173,2.56 22.844,2.6 c 0.77,0.049 1.54,0.162 2.291,0.344 0.496,0.159 0.98,0.381 1.423,0.663 0.354,0.238 0.677,0.517 0.952,0.847 0.306,0.383 0.544,0.81 0.715,1.265 -0.88,-0.087 -1.77,-0.14 -2.663,-0.151 -0.745,-0.004 -1.491,0.069 -2.227,0.201 -0.758,0.136 -1.497,0.374 -2.188,0.715 v 0 c -0.5,0.237 -0.712,0.833 -0.474,1.331 v 0 c 0.239,0.498 0.838,0.71 1.338,0.474 v 0 c 0.535,-0.263 1.099,-0.446 1.684,-0.556 0.613,-0.107 1.237,-0.171 1.862,-0.17 1.212,0.018 2.425,0.115 3.629,0.296 0.007,0.008 0.014,0.002 0.021,0.009 L 29.368,7.89 C 29.67,7.925 29.97,7.832 30.188,7.625 30.413,7.411 30.525,7.123 30.503,6.816 30.39,5.492 29.895,4.225 29.068,3.184 28.651,2.698 28.178,2.271 27.634,1.931 27.024,1.541 26.363,1.232 25.674,1.013 24.785,0.789 23.881,0.657 22.963,0.601 22.136,0.561 21.309,0.599 20.495,0.73 c -1.537,0.264 -2.981,0.92 -4.18,1.918 -1.001,0.846 -1.834,1.877 -2.466,3.041 -0.71,1.319 -1.251,2.732 -1.612,4.19 -0.109,0.416 -0.014,0.858 0.247,1.187 0.276,0.317 0.679,0.489 1.086,0.462 1.31,-0.036 2.615,0.14 3.865,0.517 1.215,0.381 2.394,0.844 3.545,1.383 0.617,0.289 1.256,0.497 1.915,0.635 z"
       style="fill:url(#_lgradient_3);fill-rule:evenodd"
       inkscape:connector-curvature="0" />
    <path
       id="path14"
       d="m 6,36.914 c 0,-1.72 0.69,-3.38 1.9,-4.6 1.22,-1.21 2.88,0.1 4.6,0.1 1.72,0 3.38,-1.31 4.6,-0.1 1.21,1.22 1.9,2.88 1.9,4.6 0,1.72 -0.69,3.38 -1.9,4.6 -1.22,1.21 -2.88,1.9 -4.6,1.9 -1.72,0 -3.38,-0.69 -4.6,-1.9 C 6.69,40.294 6,38.634 6,36.914 Z m -4,0 c 0,-2.78 1.11,-5.46 3.08,-7.42 q 1.96,-1.97 7.42,-1.08 5.46,-0.89 7.42,1.08 c 1.97,1.96 3.08,4.64 3.08,7.42 0,2.78 -1.11,5.46 -3.08,7.42 -1.96,1.97 -4.64,3.08 -7.42,3.08 -2.78,0 -5.46,-1.11 -7.42,-3.08 C 3.11,42.374 2,39.694 2,36.914 Z m 27,0 c 0,-1.72 0.69,-3.38 1.9,-4.6 1.22,-1.21 2.88,0.1 4.6,0.1 1.72,0 3.38,-1.31 4.6,-0.1 1.21,1.22 1.9,2.88 1.9,4.6 0,1.72 -0.69,3.38 -1.9,4.6 -1.22,1.21 -2.88,1.9 -4.6,1.9 -1.72,0 -3.38,-0.69 -4.6,-1.9 -1.21,-1.22 -1.9,-2.88 -1.9,-4.6 z m -4,0 c 0,-2.78 1.11,-5.46 3.08,-7.42 1.96,-1.97 4.64,-1.08 7.42,-1.08 2.78,0 5.46,-0.89 7.42,1.08 1.97,1.96 3.08,4.64 3.08,7.42 0,2.78 -1.11,5.46 -3.08,7.42 -1.96,1.97 -4.64,3.08 -7.42,3.08 -2.78,0 -5.46,-1.11 -7.42,-3.08 C 26.11,42.374 25,39.694 25,36.914 Z"
       style="fill:url(#_lgradient_4);fill-rule:evenodd"
       inkscape:connector-curvature="0" />
  </g>
</svg>

<?xml version="1.0" encoding="UTF-8" standalone="no"?><!-- Generator: Gravit.io --><svg xmlns="http://www.w3.org/2000/svg" xmlns:xlink="http://www.w3.org/1999/xlink" style="isolation:isolate" viewBox="0 0 48 48" width="48pt" height="48pt"><linearGradient id="_lgradient_3" x1="0" y1="0.5" x2="1" y2="0.5" gradientTransform="matrix(28.168,0,0,29.898,9.916,0.586)" gradientUnits="userSpaceOnUse"><stop offset="0%" stop-opacity="1" style="stop-color:rgb(67,233,123)"/><stop offset="97.82608695652173%" stop-opacity="1" style="stop-color:rgb(56,249,215)"/></linearGradient><path d=" M 22.895 14.063 C 22.437 14.43 21.984 14.804 21.536 15.184 C 17.346 18.774 13.706 22.964 10.726 27.604 L 9.916 28.864 L 12.436 30.484 L 13.246 29.224 C 16.066 24.834 19.516 20.874 23.476 17.474 C 26.666 14.774 30.116 12.414 33.796 10.434 C 33.466 11.504 33.176 12.574 32.936 13.664 C 32.466 15.844 32.216 18.064 32.216 20.294 C 32.206 23.204 32.666 26.104 33.556 28.874 L 34.016 30.304 L 36.876 29.384 L 36.416 27.954 C 35.616 25.484 35.206 22.894 35.216 20.294 C 35.216 18.284 35.436 16.274 35.866 14.314 C 36.626 10.874 37.866 7.564 37.866 7.564 C 38.804 5.864 36.622 5.618 32.996 7.014 C 32.996 7.014 31.571 7.86 29.317 9.397 C 29.066 9.386 28.815 9.48 28.623 9.668 L 28.623 9.668 C 28.398 9.892 28.166 10.108 27.928 10.316 C 27.397 10.682 26.799 11.105 26.158 11.595 C 26.092 11.633 26.026 11.668 25.959 11.704 C 25.533 11.927 25.072 12.077 24.597 12.147 C 24.166 12.207 23.727 12.195 23.302 12.106 C 22.8 12.004 22.305 11.831 21.827 11.616 C 20.595 11.042 19.32 10.542 18.022 10.139 C 16.848 9.776 15.63 9.579 14.406 9.531 C 14.71 8.537 15.12 7.559 15.616 6.638 C 16.121 5.698 16.793 4.865 17.602 4.179 C 18.524 3.411 19.642 2.91 20.825 2.706 C 21.488 2.596 22.173 2.56 22.844 2.6 C 23.614 2.649 24.384 2.762 25.135 2.944 C 25.631 3.103 26.115 3.325 26.558 3.607 C 26.912 3.845 27.235 4.124 27.51 4.454 C 27.816 4.837 28.054 5.264 28.225 5.719 C 27.345 5.632 26.455 5.579 25.562 5.568 C 24.817 5.564 24.071 5.637 23.335 5.769 C 22.577 5.905 21.838 6.143 21.147 6.484 L 21.147 6.484 C 20.647 6.721 20.435 7.317 20.673 7.815 L 20.673 7.815 C 20.912 8.313 21.511 8.525 22.011 8.289 L 22.011 8.289 C 22.546 8.026 23.11 7.843 23.695 7.733 C 24.308 7.626 24.932 7.562 25.557 7.563 C 26.769 7.581 27.982 7.678 29.186 7.859 C 29.193 7.867 29.2 7.861 29.207 7.868 L 29.368 7.89 C 29.67 7.925 29.97 7.832 30.188 7.625 C 30.413 7.411 30.525 7.123 30.503 6.816 C 30.39 5.492 29.895 4.225 29.068 3.184 C 28.651 2.698 28.178 2.271 27.634 1.931 C 27.024 1.541 26.363 1.232 25.674 1.013 C 24.785 0.789 23.881 0.657 22.963 0.601 C 22.136 0.561 21.309 0.599 20.495 0.73 C 18.958 0.994 17.514 1.65 16.315 2.648 C 15.314 3.494 14.481 4.525 13.849 5.689 C 13.139 7.008 12.598 8.421 12.237 9.879 C 12.128 10.295 12.223 10.737 12.484 11.066 C 12.76 11.383 13.163 11.555 13.57 11.528 C 14.88 11.492 16.185 11.668 17.435 12.045 C 18.65 12.426 19.829 12.889 20.98 13.428 C 21.597 13.717 22.236 13.925 22.895 14.063 Z " fill-rule="evenodd" fill="url(#_lgradient_3)"/><linearGradient id="_lgradient_4" x1="0" y1="0.5" x2="0.9074880558539661" y2="0.9200778838291643" gradientTransform="matrix(44,0,0,19.277,2,28.137)" gradientUnits="userSpaceOnUse"><stop offset="0%" stop-opacity="1" style="stop-color:rgb(255,65,108)"/><stop offset="84.34782608695653%" stop-opacity="1" style="stop-color:rgb(255,75,43)"/></linearGradient><path d=" M 6 36.914 C 6 35.194 6.69 33.534 7.9 32.314 C 9.12 31.104 10.78 32.414 12.5 32.414 C 14.22 32.414 15.88 31.104 17.1 32.314 C 18.31 33.534 19 35.194 19 36.914 C 19 38.634 18.31 40.294 17.1 41.514 C 15.88 42.724 14.22 43.414 12.5 43.414 C 10.78 43.414 9.12 42.724 7.9 41.514 C 6.69 40.294 6 38.634 6 36.914 L 6 36.914 Z  M 2 36.914 C 2 34.134 3.11 31.454 5.08 29.494 Q 7.04 27.524 12.5 28.414 Q 17.96 27.524 19.92 29.494 C 21.89 31.454 23 34.134 23 36.914 C 23 39.694 21.89 42.374 19.92 44.334 C 17.96 46.304 15.28 47.414 12.5 47.414 C 9.72 47.414 7.04 46.304 5.08 44.334 C 3.11 42.374 2 39.694 2 36.914 L 2 36.914 Z  M 29 36.914 C 29 35.194 29.69 33.534 30.9 32.314 C 32.12 31.104 33.78 32.414 35.5 32.414 C 37.22 32.414 38.88 31.104 40.1 32.314 C 41.31 33.534 42 35.194 42 36.914 C 42 38.634 41.31 40.294 40.1 41.514 C 38.88 42.724 37.22 43.414 35.5 43.414 C 33.78 43.414 32.12 42.724 30.9 41.514 C 29.69 40.294 29 38.634 29 36.914 L 29 36.914 Z  M 25 36.914 C 25 34.134 26.11 31.454 28.08 29.494 C 30.04 27.524 32.72 28.414 35.5 28.414 C 38.28 28.414 40.96 27.524 42.92 29.494 C 44.89 31.454 46 34.134 46 36.914 C 46 39.694 44.89 42.374 42.92 44.334 C 40.96 46.304 38.28 47.414 35.5 47.414 C 32.72 47.414 30.04 46.304 28.08 44.334 C 26.11 42.374 25 39.694 25 36.914 L 25 36.914 Z " fill-rule="evenodd" fill="url(#_lgradient_4)"/></svg>
